packages/ui-icons/src/Basic/16/Shop_16.svg

<svg xmlns="http://www.w3.org/2000/svg" viewBox="0 0 20 20"><path d="M17.62 6H5.2l-.13-.53A1.87 1.87 0 0 0 3.24 4H2v.94h1.24a.94.94 0 0 1 .92.74L6 13.44a1.92 1.92 0 0 0 1.84 1.5H16V14H7.84a1 1 0 0 1-.92-.78v-.07l7.7-1a3.28 3.28 0 0 0 2.78-2.72l.6-3Zm-1.14 3.26a2.35 2.35 0 0 1-2 1.91l-7.79 1.06-1.27-5.29h11.52ZM16 17a1 1 0 1 1-1-1 1 1 0 0 1 1 1Zm-7 0a1 1 0 1 1-1-1 1 1 0 0 1 1 1Z"/></svg>

<svg id="ready" xmlns="http://www.w3.org/2000/svg" viewBox="0 0 20 20"><title>Megaicons_work_16_1.8_cp</title><path d="M17.62,6H5.2l-.13-.53A1.87,1.87,0,0,0,3.24,4H2v.94H3.24a.94.94,0,0,1,.92.74L6,13.44a1.92,1.92,0,0,0,1.84,1.5H16V14H7.84a1,1,0,0,1-.92-.78l0-.07,7.7-1A3.28,3.28,0,0,0,17.4,9.43l.6-3ZM16.48,9.26a2.35,2.35,0,0,1-2,1.91L6.69,12.23,5.42,6.94H16.94ZM16,17a1,1,0,1,1-1-1A1,1,0,0,1,16,17ZM9,17a1,1,0,1,1-1-1A1,1,0,0,1,9,17Z"/></svg>
